assets/materialdesign/mono.svg

<svg viewBox="0 0 24 24" xmlns="http://www.w3.org/2000/svg"><path d="m11.9998 23.9997c-1.6545 0-3.218-.309-4.691-.927-1.4544-.6364-2.7269-1.4909-3.8179-2.5639-1.073-1.0905-1.9274-2.3634-2.5634-3.8179-.619-1.473-.9275-3.0364-.9275-4.6909 0-1.6725.309-3.2364.927-4.6909.6365-1.4545 1.491-2.718 2.564-3.791 1.0908-1.0903 2.3633-1.9448 3.8177-2.5633 1.473-.6365 3.0365-.9545 4.691-.9545 1.673 0 3.2364.318 4.6909.955 1.4544.618 2.7179 1.4725 3.7909 2.563 1.091 1.073 1.945 2.3364 2.5634 3.7909.6366 1.4549.9551 3.0183.9551 4.6908 0 1.655-.3185 3.218-.955 4.6909-.618 1.4545-1.4724 2.7274-2.5634 3.818-1.073 1.0729-2.3365 1.9274-3.791 2.5639-1.455.618-3.0179.927-4.6909.927zm-7.6364-5.8633v-12.2728a9.4843 9.4843 0 0 0 -1.6084 2.8365c-.382 1.0364-.5725 2.1364-.5725 3.2999s.1905 2.2725.5724 3.3274a9.5713 9.5713 0 0 0 1.609 2.809zm1.5-13.7727h12.2996a9.4848 9.4848 0 0 0 -2.836-1.609c-1.0549-.382-2.1639-.5725-3.3273-.5725-1.1635 0-2.2725.1905-3.327.5725a9.5713 9.5713 0 0 0 -2.8094 1.609zm6.1364 10.3637 4.1179-8.1818h-8.2089zm1.091 2.727h4.3633v-8.7268zm-6.5454 0h4.3634l-4.3634-8.7268zm8.7813 3.791c1.0545-.382 2-.918 2.836-1.609h-12.2999a9.5713 9.5713 0 0 0 2.8094 1.609c1.0545.3819 2.1635.5724 3.327.5724 1.0543 0 2.1823-.1579 3.3274-.5725zm4.3089-3.109a9.5713 9.5713 0 0 0 1.609-2.809c.382-1.055.5724-2.164.5724-3.3274 0-1.1635-.1905-2.2635-.5724-3.3-.382-1.055-.918-1.9999-1.609-2.8364z"/></svg>

<svg xmlns="http://www.w3.org/2000/svg" viewBox="0 0 24 24"><path d="M12 24a12 12 0 0 1-4.691-.927 12.6 12.6 0 0 1-3.818-2.564A12.6 12.6 0 0 1 .928 16.69 12 12 0 0 1 0 12q0-2.509.927-4.69a12.2 12.2 0 0 1 2.564-3.792A12 12 0 0 1 7.309.955 11.7 11.7 0 0 1 11.999 0q2.51 0 4.692.955a11.65 11.65 0 0 1 3.79 2.563 11.65 11.65 0 0 1 2.564 3.791Q24 9.492 24 12q0 2.482-.955 4.69a12 12 0 0 1-2.563 3.819 12.2 12.2 0 0 1-3.791 2.564Q14.509 24 12 24m-7.637-5.864V5.864A9.5 9.5 0 0 0 2.755 8.7q-.572 1.555-.572 3.3c0 1.745.19 2.273.572 3.327a9.6 9.6 0 0 0 1.609 2.81zm1.5-13.772h12.3a9.5 9.5 0 0 0-2.836-1.61A9.7 9.7 0 0 0 12 2.183q-1.746 0-3.327.573a9.6 9.6 0 0 0-2.81 1.609M12 14.727l4.118-8.181h-8.21zm1.09 2.727h4.364V8.728zm-6.545 0h4.364L6.545 8.728zm8.782 3.791a9.5 9.5 0 0 0 2.836-1.609h-12.3a9.6 9.6 0 0 0 2.81 1.61 9.7 9.7 0 0 0 3.326.572 9.7 9.7 0 0 0 3.328-.573m4.309-3.109a9.6 9.6 0 0 0 1.609-2.809A9.7 9.7 0 0 0 21.817 12q0-1.745-.572-3.3a9.5 9.5 0 0 0-1.61-2.836z"/></svg>
